X:1
T:[ID 5-27]
T:[ID 5-27]
T:Bezeichnung standardisiert: Menuet [mit Trio] Menuet Con Trio
T:Urheber unbekannt Datum in der hier transkribierten schriftlichen Quelle: 1773
C:Urheber unbekannt
C:Datum in der hier transkribierten schriftlichen Quelle: 1773
L:1/8
M:3/4
K:D
V:1 treble 
V:1
 (3ABc | d2 D2 (3efg | f2 A2 (3ABc | d2 D2 (3efg | f2 A2 a2 | a2 fd a2 | a2 fdga | a2 g2 f2 | e4 :: %9
 (3efg | f2 g2 a2 | e4 (3FGA | F2 G2 A2 | E4 dc | B2 G2 (3efg | e3 gfa | A2 B2 c2 | d4 :| %18
[M:3/4]"^Trio" (3!fermata!dcB | A2 A2 G2 | F4 (3dcB | A2 A2 G2 | F4 (3dcB | A2 A2 B2 | c4 d2 | %25
 efedcB | A4 :: (3dcB | A2 A2 =c2 | B4 (3edc | B2 B2 d2 | c4 d2 | cB A2 B2 | AG F2 G2 | ABAGFE | %35
 D4 :| %36

